X:521
T:Marquis of Huntly
R:Strathspey
B:The Athole Collection
M:C
L:1/8
K:F
A|F<AcA f>c d/c/B/A/|FA/B/ c>A G<g ~g>a|F>Ac>A f>c d/c/B/A/|
Bc/d/ c>B A<F~F:|
c|f<ad<f A<cF<c|f<a g>f e<g ~g>e|f<ad<f c<fA<c|Bc/d/ c>B A<F ~F>c|
f<ac<f A<cF<c|~f<a g>f e<g ~ga/g/|(3fga (3gab (3agf (3gfe|
~f<d c>B A<F~F||

